svgs/solid/arrow-down-small-big.svg

<svg xmlns="http://www.w3.org/2000/svg" viewBox="0 0 512 512"><!--! Font Awesome Pro 6.1.2 by @fontawesome - https://fontawesome.com License - https://fontawesome.com/license (Commercial License) Copyright 2022 Fonticons, Inc. --><path d="M320 192h96c17.67 0 32-14.33 32-32V64c0-17.6-14.4-32-32-32h-96c-17.67 0-32 14.33-32 32v96C288 177.7 302.3 192 320 192zM480 256h-160c-17.67 0-32 14.33-32 32v160c0 17.67 14.33 32 32 32h160c17.67 0 32-14.33 32-32V288C512 270.3 497.7 256 480 256zM192.4 330.7L160 366.1V64.03C160 46.33 145.7 32 128 32S96 46.33 96 64.03v302L63.6 330.7c-6.312-6.883-14.94-10.38-23.61-10.38c-7.719 0-15.47 2.781-21.61 8.414c-13.03 11.95-13.9 32.22-1.969 45.27l87.1 96.09c12.12 13.26 35.06 13.26 47.19 0l87.1-96.09c11.94-13.05 11.06-33.31-1.969-45.27C224.6 316.8 204.4 317.7 192.4 330.7z"/></svg>

<svg xmlns="http://www.w3.org/2000/svg" viewBox="0 0 512 512"><!--! Font Awesome Pro 6.2.0 by @fontawesome - https://fontawesome.com License - https://fontawesome.com/license (Commercial License) Copyright 2022 Fonticons, Inc. --><path d="M128 480c9 0 17.5-3.8 23.6-10.4l88-96c11.9-13 11.1-33.3-2-45.2s-33.3-11.1-45.2 2L160 365.7V64c0-17.7-14.3-32-32-32s-32 14.3-32 32V365.7L63.6 330.4c-11.9-13-32.2-13.9-45.2-2s-13.9 32.2-2 45.2l88 96C110.5 476.2 119 480 128 480zM288 64v96c0 17.7 14.3 32 32 32h96c17.7 0 32-14.3 32-32V64c0-17.7-14.3-32-32-32H320c-17.7 0-32 14.3-32 32zm32 192c-17.7 0-32 14.3-32 32V448c0 17.7 14.3 32 32 32H480c17.7 0 32-14.3 32-32V288c0-17.7-14.3-32-32-32H320z"/></svg>
